app/javascript/images/hardpoints/main_thrusters.svg

<svg fill="#428bca" stroke="#428bca" viewBox="0 0 27.6 37" xmlns="http://www.w3.org/2000/svg"><path d="m21.8 2.3 5.8 8.3-1.4 2.6-3.9-3.8a7.3 7.3 0 0 0 -5.1-2.1h-6.8a7.3 7.3 0 0 0 -5.1 2.1l-4 3.9-1.3-2.7 5.8-8.3a5.5 5.5 0 0 1 4.5-2.3h7.1a5.5 5.5 0 0 1 4.4 2.3zm-8 28.4 6.8-16.6 6.8 7.1-5.1-.6-8.5 16.4-8.6-16.4-5 .6 6.8-7.1zm-2.5-19.6h5.1a1.1 1.1 0 0 1 1 1.5l-3.6 8-3.5-7.9a1.1 1.1 0 0 1 1-1.5z"/></svg>

<svg xmlns="http://www.w3.org/2000/svg" viewBox="0 0 27.6 37" style="fill: #428bca; stroke: #428bca">
  <path d="M21.8 2.3l5.8 8.3-1.4 2.6-3.9-3.8a7.3 7.3 0 0 0-5.1-2.1H10.4A7.3 7.3 0 0 0 5.3 9.4l-4 3.9L0 10.6l5.8-8.3A5.5 5.5 0 0 1 10.3 0h7.1A5.5 5.5 0 0 1 21.8 2.3Zm-8 28.4 6.8-16.6 6.8 7.1-5.1-0.6L13.8 37 5.2 20.6l-5 0.6L7 14.1Zm-2.5-19.6h5.1a1.1 1.1 0 0 1 1 1.5L13.8 20.6l-3.5-7.9A1.1 1.1 0 0 1 11.3 11.2Z"></path>
</svg>
